X:384
T:Jenny Dang the Weaver. RH.384
R:reel
S:Rev.R.Harrison’s MS,c1815,Cumbria
O:England
A:Temple Sowerby,Cumbria
Z:vmp.Simon Wilson. Review PJH, 2008.
M:C
L:1/8
Q:2/4=80
K:D
f|dA A/A/A AFAB|dA A/A/A f2ef|\
dB B/B/B B>ABd|ABde faef|!
aA AA/A/ AFAB|dA A/A/A f2ef|\
bB B/B/B BABd|AB” c in MS”de f2(e:|!
|:f)|defd efge|defd (fe)(dB)|\
defd efge|aA A/A/A f2ef|!
(Ecec) (Fdfd)|(Fdfd) fedB|\
Fdfd Ecec|abag faf:|

